data/styles/clear/style-night/symbols/swimming-m.svg

<svg height="24" viewBox="0 0 24 24" width="24"><g fill="none" fill-rule="evenodd"><circle cx="12" cy="12" fill="#fff" opacity=".4" r="12"/><circle cx="12" cy="12" fill="#3d3d36" r="11"/><path d="m14.0769231 6c-.1054431 0-.2892277.0512-.375.10026667l-2.6538462 1.50005333c-.3549507.19413333-.4937077.80224-.2596154 1.16661333l.8076923 1.26666667-3.43269226 2.3000533 1.84615386.8666667 1.9903846-.9333333 1.9903846.9333333.7788462-.9333333-2.3942308-3.70005337 2.0192308-1.2c.4013169-.23189333.3877477-.62954666.3461538-.86666666-.0394154-.22474667-.2969815-.49994667-.6634615-.49994667zm1.6153846 2.53333333c-.7647046 0-1.3846154.71637334-1.3846154 1.59999997 0 .8836267.6199108 1.6 1.3846154 1.6s1.3846154-.7163733 1.3846154-1.6c0-.88362663-.6199108-1.59999997-1.3846154-1.59999997zm-3.6923077 4.79999997-1.8461538 1.0666667-2.30769235-1-1.84615385 1v1.6l1.84615385-1.0666667 2.30769235 1.0666667 1.8461538-1.1333333 1.8461538 1.1333333 1.8461539-1.1333333 2.3076923 1.1333333v-1.6l-2.3076923-1.0666667-1.8461539 1.0666667z" fill="#fff" opacity=".6"/></g></svg>

<svg width="24" height="24" viewBox="0 0 24 24">
  <g fill="none" fill-rule="evenodd">
    <circle cx="12" cy="12" r="12" fill="#FFF" opacity=".4"/>
    <circle cx="12" cy="12" r="11" fill="#3D3D36"/>
    <path fill="#FFF" d="M14.0769231,6 C13.97148,6 13.7876954,6.0512 13.7019231,6.10026667 L11.0480769,7.60032 C10.6931262,7.79445333 10.5543692,8.40256 10.7884615,8.76693333 L11.5961538,10.0336 L8.16346154,12.3336533 L10.0096154,13.20032 L12,12.2669867 L13.9903846,13.20032 L14.7692308,12.2669867 L12.375,8.56693333 L14.3942308,7.36693333 C14.7955477,7.13504 14.7819785,6.73738667 14.7403846,6.50026667 C14.7009692,6.27552 14.4434031,6.00032 14.0769231,6.00032 L14.0769231,6 Z M15.6923077,8.53333333 C14.9276031,8.53333333 14.3076923,9.24970667 14.3076923,10.1333333 C14.3076923,11.01696 14.9276031,11.7333333 15.6923077,11.7333333 C16.4570123,11.7333333 17.0769231,11.01696 17.0769231,10.1333333 C17.0769231,9.24970667 16.4570123,8.53333333 15.6923077,8.53333333 L15.6923077,8.53333333 Z M12,13.3333333 L10.1538462,14.4 L7.84615385,13.4 L6,14.4 L6,16 L7.84615385,14.9333333 L10.1538462,16 L12,14.8666667 L13.8461538,16 L15.6923077,14.8666667 L18,16 L18,14.4 L15.6923077,13.3333333 L13.8461538,14.4 L12,13.3333333 L12,13.3333333 Z" opacity=".6"/>
  </g>
</svg>
